flaticon/grooming/mascara.svg

<svg xmlns="http://www.w3.org/2000/svg" width="32" height="32" viewBox="0 0 24 24">
    <path d="M9.761719 14.644531L8.136719 14.644531 8.136719 8.183594 9.128906 7.6875C9.136719 7.683594 9.144531 7.679688 9.152344 7.675781 9.347656 7.570312 9.421875 7.324219 9.316406 7.125 9.210938 6.929688 8.964844 6.855469 8.765625 6.960938L8.136719 7.273438 8.136719 6.558594 9.128906 6.0625C9.136719 6.058594 9.144531 6.054688 9.152344 6.050781 9.347656 5.945312 9.421875 5.695312 9.316406 5.5 9.210938 5.300781 8.964844 5.226562 8.765625 5.332031L8.136719 5.648438 8.136719 4.929688 9.128906 4.433594C9.136719 4.429688 9.144531 4.425781 9.152344 4.421875 9.347656 4.316406 9.421875 4.070312 9.316406 3.871094 9.210938 3.675781 8.964844 3.597656 8.765625 3.707031L8.136719 4.019531 8.136719 3.304688 9.128906 2.808594C9.136719 2.804688 9.144531 2.800781 9.152344 2.796875 9.347656 2.6875 9.421875 2.441406 9.316406 2.246094 9.210938 2.046875 8.964844 1.972656 8.765625 2.078125L8.136719 2.394531 8.136719 1.675781 9.128906 1.179688C9.136719 1.175781 9.144531 1.171875 9.152344 1.167969 9.347656 1.0625 9.421875.816406 9.316406.617188 9.210938.417969 8.964844.34375 8.765625.453125L8.136719.765625 8.136719.40625C8.136719.183594 7.953125 0 7.730469 0 7.503906 0 7.320312.183594 7.320312.40625L7.320312 1.171875 6.324219 1.671875C6.191406 1.742188 6.105469 1.878906 6.105469 2.03125 6.101562 2.257812 6.285156 2.4375 6.507812 2.441406 6.570312 2.441406 6.632812 2.425781 6.6875 2.398438L7.320312 2.082031 7.320312 2.800781 6.324219 3.300781C6.191406 3.367188 6.105469 3.507812 6.105469 3.660156 6.101562 3.882812 6.285156 4.066406 6.507812 4.066406 6.570312 4.066406 6.632812 4.054688 6.6875 4.027344L7.320312 3.710938 7.320312 4.429688 6.324219 4.925781C6.191406 4.996094 6.105469 5.132812 6.105469 5.285156 6.101562 5.511719 6.285156 5.695312 6.507812 5.695312 6.570312 5.695312 6.632812 5.679688 6.6875 5.652344L7.320312 5.335938 7.320312 6.054688 6.324219 6.554688C6.191406 6.621094 6.105469 6.761719 6.105469 6.914062 6.101562 7.136719 6.285156 7.320312 6.507812 7.320312 6.570312 7.320312 6.632812 7.308594 6.6875 7.28125L7.320312 6.964844 7.320312 7.683594 6.324219 8.179688C6.191406 8.25 6.105469 8.386719 6.105469 8.539062 6.101562 8.765625 6.285156 8.949219 6.507812 8.949219 6.570312 8.949219 6.632812 8.933594 6.6875 8.910156L7.320312 8.589844 7.320312 14.644531 5.695312 14.644531 5.695312 16.679688 4.882812 16.679688 4.882812 24 10.578125 24 10.578125 16.679688 9.761719 16.679688zM6.507812 15.457031L8.949219 15.457031 8.949219 16.679688 6.507812 16.679688zM9.761719 23.1875L5.695312 23.1875 5.695312 17.492188 9.761719 17.492188zM18.304688 9.761719L18.304688 7.730469 14.238281 7.730469 14.238281 9.761719 13.421875 9.761719 13.421875 24 19.117188 24 19.117188 9.761719zM15.050781 8.542969L17.492188 8.542969 17.492188 9.761719 15.050781 9.761719zM18.304688 18.304688L16.679688 18.304688 16.679688 12.609375 18.304688 12.609375zM15.863281 11.796875L15.863281 19.117188 18.304688 19.117188 18.304688 23.1875 14.238281 23.1875 14.238281 10.578125 18.304688 10.578125 18.304688 11.796875zM15.863281 11.796875"/>
</svg>

<svg xmlns="http://www.w3.org/2000/svg" width="32" height="32" viewBox="0 0 24 24">
    <path d="M9.762 14.645H8.137V8.184l.992-.496.023-.012a.409.409 0 0 0 .164-.551.409.409 0 0 0-.55-.164l-.63.312V6.56l.993-.497.023-.011a.41.41 0 0 0 .164-.551.406.406 0 0 0-.55-.168l-.63.316V4.93l.993-.496.023-.012a.409.409 0 0 0 .164-.55.405.405 0 0 0-.55-.165l-.63.313v-.715l.993-.496.023-.012a.41.41 0 0 0 .164-.55.406.406 0 0 0-.55-.169l-.63.317v-.72l.993-.495.023-.012a.409.409 0 0 0 .164-.55.402.402 0 0 0-.55-.165l-.63.313v-.36a.408.408 0 0 0-.816 0v.766l-.996.5a.407.407 0 0 0 .364.726l.632-.316v.719l-.996.5a.403.403 0 0 0-.219.36.403.403 0 0 0 .403.405.402.402 0 0 0 .18-.039l.632-.316v.719l-.996.496a.407.407 0 0 0-.219.36.404.404 0 0 0 .582.366l.633-.316v.719l-.996.5a.403.403 0 0 0-.219.36.403.403 0 0 0 .403.405.402.402 0 0 0 .18-.039l.632-.316v.719l-.996.496a.407.407 0 0 0-.219.36c-.003.226.18.41.403.41a.463.463 0 0 0 .18-.04l.632-.32v6.055H5.695v2.035h-.812V24h5.695v-7.32h-.816zm-3.254.812h2.441v1.223H6.508zm3.254 7.73H5.695v-5.695h4.067zm0 0M18.305 9.762V7.73h-4.067v2.032h-.816V24h5.695V9.762zM15.05 8.543h2.441v1.219h-2.441zm3.254 9.762H16.68v-5.696h1.625zm-2.442-6.508v7.32h2.442v4.07h-4.067V10.579h4.067v1.219zm0 0"/>
</svg>
